X: 1
T:Flitter Dance
R:Polka
O:England
M:2/4
L:1/8
A:Isle of Man
K:ADor
cA Ae | cA AB/c/ | d>c BA | GB E2 |\
cA Ae | cA AB/c/ | d>c BG | A4 A4 :|
|:\
ce ef/g/ | ae ef/g/ | ae ed | ce B2 |\
ce ef/g/ | ae ef/g/ | ae dc B2A2 :|
